X:4967
T:Paddy Whack. JMT102
T:Paddy Wack. JMT102
O:england
M:6/8
L:1/8
S:J.Moore,Tyneside,1841.(71b)
R:Jig
A:Northumbria
N:An unusual and very nice setting
K:G
D|GBd gfa|edc B2A|GBd gfa|fddd2=f|ece efg|dBGA2G|GAB cAd|BGGG2:|
|:B/c/|dBd ede|dBGA2G|Bcd gea|fddd2=f|ece (e/f/g)e|dBGA2G|GAB cAd|BGGG2
:|]


